src/icons/svg/ArrowUpThin.svg

<svg width="24" height="24" viewBox="0 0 24 24" fill="none" xmlns="http://www.w3.org/2000/svg">
<path d="M20.035 16.027C20.035 16.027 11.816 7 11.785 6.967C11.636 6.818 11.441 6.754 11.248 6.763C11.056 6.755 10.861 6.82 10.716 6.969C10.684 7 2.46596 16.027 2.46596 16.027C2.18696 16.306 2.18696 16.758 2.46596 17.036C2.74496 17.316 3.19696 17.316 3.47696 17.036L11.25 8.56L19.026 17.036C19.305 17.316 19.755 17.316 20.037 17.036C20.315 16.757 20.315 16.306 20.036 16.027H20.035Z" fill="#1C2125"/>
</svg>

<!-- Generated by IcoMoon.io -->
<svg version="1.1" xmlns="http://www.w3.org/2000/svg" width="24" height="24" viewBox="0 0 24 24">
<title>arrow-up-thin</title>
<path fill="#444" d="M20.035 16.027c0 0-8.219-9.027-8.25-9.060-0.149-0.149-0.344-0.213-0.537-0.204-0.192-0.008-0.387 0.057-0.532 0.206-0.032 0.031-8.25 9.058-8.25 9.058-0.279 0.279-0.279 0.731 0 1.009 0.279 0.28 0.731 0.28 1.011 0l7.773-8.476 7.776 8.476c0.279 0.28 0.729 0.28 1.011 0 0.278-0.279 0.278-0.73-0.001-1.009z"></path>
</svg>
